X:5
T:De Kolom
R:Divers
C:Trad. (Flandres)
Z:J.M HENRY
M:4/4
L:1/8
Q:80
K:G
D| G2 B2| G3 B|GB dB|G3 B/2B/2|B AA c/2c/2|c BB c|dc BA|B2 GD|!
G2 B2|G3 B|GB dB|G3 B/2B/2|B AA c/2c/2|c BB c|dc BA |G2 AB|!
cd/2c/2 BA|dd AB|cd/2c/2 BA|GG AB|cd/2c/2 BA|dd AB|cd/2c/2 BA|G2 AB|!
cd/2c/2 BA|dd AB|cd/2c/2 BA|GG AB|cd/2c/2 BA|dd AB|cd/2c/2 BA|G3||

%%footer $D   Galouvielle-MBe 2007 \nRondanse (France)
